images/main/slider-arrow-left.svg

<svg width="38" height="38" fill="none" xmlns="http://www.w3.org/2000/svg"><rect x="37" y="37" width="36" height="36" rx="18" transform="rotate(180 37 37)" fill="#FCFCFC" fill-opacity=".3"/><path fill-rule="evenodd" clip-rule="evenodd" d="M19.8647 24.1352c.2597.2597.6808.2597.9405 0 .2597-.2597.2597-.6807 0-.9404l-4.2013-4.2013 4.2013-4.2013c.2597-.2597.2597-.6808 0-.9405-.2597-.2597-.6807-.2597-.9404 0l-4.6687 4.6688c-.001.0009-.0019.0018-.0029.0028-.2597.2597-.2597.6807 0 .9404l4.6715 4.6715Z" fill="#FCFCFC"/><rect x="37" y="37" width="36" height="36" rx="18" transform="rotate(180 37 37)" stroke="#FCFCFC" stroke-width="2"/></svg>

<svg width="38" height="38" viewBox="0 0 38 38" fill="none" xmlns="http://www.w3.org/2000/svg">
<rect x="37" y="37" width="36" height="36" rx="18" transform="rotate(180 37 37)" fill="#FCFCFC" fill-opacity="0.3"/>
<path fill-rule="evenodd" clip-rule="evenodd" d="M19.8647 24.1352C20.1244 24.3949 20.5455 24.3949 20.8052 24.1352C21.0649 23.8755 21.0649 23.4545 20.8052 23.1948L16.6039 18.9935L20.8052 14.7922C21.0649 14.5325 21.0649 14.1114 20.8052 13.8517C20.5455 13.592 20.1245 13.592 19.8648 13.8517L15.1961 18.5205C15.1951 18.5214 15.1942 18.5223 15.1932 18.5233C14.9335 18.783 14.9335 19.204 15.1932 19.4637L19.8647 24.1352Z" fill="#FCFCFC"/>
<rect x="37" y="37" width="36" height="36" rx="18" transform="rotate(180 37 37)" stroke="#FCFCFC" stroke-width="2"/>
</svg>
